src/assets/logo.svg

<svg height="100" viewBox="0 0 100 100" width="100" xmlns="http://www.w3.org/2000/svg"><g fill="none" fill-rule="evenodd"><g transform="matrix(.70710678 -.70710678 .70710678 .70710678 -12.305086 30.363961)"><path d="m33.919588 22.1701691c-1.5473098 9.4201656-4.377138 6.92745-1.3223401 12.8398102-.4223732-.153117-3.6320489-.7608359-4.0478231-.9586995-7.2350984-3.4431238-3.1865912-8.2379963-2.0871983-18.9130079.6043663-5.86834545 2.5484051-9.59451205 6.5571715-14.12829257.9917505 3.11635623 1.8682249 15.26670307.90019 21.16018977z" fill="#84b117" transform="matrix(.98162718 .190809 -.190809 .98162718 3.975518 -5.267376)"/><path d="m18.6521784 13.7175144c10.9166515 0 19.7663461 9.7846009 19.7663461 21.8545178 0 4.9346397-1.4792126 9.4872924-3.9741286 13.1454822.0140098-.3609897.0208594-.7234885.0208594-1.0878172 0-13.734733-9.734664-24.868934-21.7429807-24.868934-4.56690847 0-8.8049619 1.6104209-12.30375005 4.3618484 2.98665643-7.8740462 10.02594915-13.4050972 18.23365385-13.4050972z" fill="#84b117"/><path d="m23.5169177 9.99559514c9.2529495 3.40001866 14.2885465 13.79718526 11.2473208 23.22272156-1.1788683 3.6536144-3.3982888 6.6249306-6.213359 8.6958969l.0205432-.062967c3.6205068-11.2208765-1.627399-23.324023-11.7215257-27.0331344-4.0870835-1.5018087-8.34200733-1.397218-12.1991394.0039648 4.51329715-5.24554444 11.8923621-7.38902086 18.8661601-4.82648186z" fill="#9bcf1c"/><path d="m47.276544 16.2121605c-11.2742068-3.9313289-23.7507966 5.12249-26.0230736 16.5989026-.928993 4.6919925-.1465339 9.3336645 1.9301083 13.3396982.0524315-.3462024.1130834-.6923252.1816717-1.0387391 2.5856945-13.0593659 18.8028736-24.0966019 28.1110795-20.4624853 4.5674754 1.7832372 8.1508546 3.3780411 11.5108819 6.7342391-3.0616005-7.9621587-7.5976922-12.3426115-15.7106678-15.1716155z" fill="#84b117" transform="matrix(.9998477 .01745241 -.01745241 .9998477 .542434 -.727046)"/><path d="m40.1307236 12.1403905c-10.0438104.0272051-18.2059865 6.8595463-18.2307869 15.2605421-.0095351 3.2564725 1.2049834 6.2706365 3.2810411 8.7394579l-.0000541-.0561883c.0294571-10.0011855 8.9356464-18.1327356 19.8925305-18.1623256 4.4364116-.0119809 8.5287989 1.3061246 11.8264825 3.5430583-2.7211296-5.4938844-9.1993559-9.3449064-16.7692131-9.3245444z" fill="#9bcf1c" transform="matrix(.8480481 -.52991926 .52991926 .8480481 -6.805563 24.546964)"/></g><rect fill="#b18139" height="85" rx="24" transform="matrix(.70710678 -.70710678 .70710678 .70710678 -23.455978 55.116219)" width="64" x="22.803173" y="13.37198"/><g fill="#ffdead"><path d="m25 42h12v12h-12z"/><path d="m38 55h12v12h-12z"/><path d="m51 68h12v12h-12z"/></g></g></svg>

<?xml version="1.0" encoding="UTF-8"?>
<svg width="100px" height="100px" viewBox="0 0 100 100" version="1.1" xmlns="http://www.w3.org/2000/svg" xmlns:xlink="http://www.w3.org/1999/xlink">
    <title>logo</title>
    <g id="logo" stroke="none" stroke-width="1" fill="none" fill-rule="evenodd">
        <g id="head" transform="translate(27.646447, 25.060660) rotate(-45.000000) translate(-27.646447, -25.060660) translate(-4.353553, 0.560660)">
            <path d="M33.919588,22.1701691 C32.3722782,31.5903347 29.54245,29.0976191 32.5972479,35.0099793 C32.1748747,34.8568623 28.965199,34.2491434 28.5494248,34.0512798 C21.3143264,30.608156 25.3628336,25.8132835 26.4622265,15.1382719 C27.0665928,9.26992645 29.0106316,5.54375985 33.019398,1.00997933 C34.0111485,4.12633556 34.8876229,16.2766824 33.919588,22.1701691 Z" id="5" fill="#84B117" transform="translate(29.339654, 18.009979) rotate(11.000000) translate(-29.339654, -18.009979) "></path>
            <path d="M18.6521784,13.7175144 C29.5688299,13.7175144 38.4185245,23.5021153 38.4185245,35.5720322 C38.4185245,40.5066719 36.9393119,45.0593246 34.4443959,48.7175144 C34.4584057,48.3565247 34.4652553,47.9940259 34.4652553,47.6296972 C34.4652553,33.8949642 24.7305913,22.7607632 12.7222746,22.7607632 C8.15536613,22.7607632 3.9173127,24.3711841 0.418524548,27.1226116 C3.40518098,19.2485654 10.4444737,13.7175144 18.6521784,13.7175144 Z" id="4" fill="#84B117"></path>
            <path d="M23.5169177,9.99559514 C32.7698672,13.3956138 37.8054642,23.7927804 34.7642385,33.2183167 C33.5853702,36.8719311 31.3659497,39.8432473 28.5508795,41.9142136 L28.5714227,41.8512466 C32.1919295,30.6303701 26.9440237,18.5272236 16.849897,14.8181122 C12.7628135,13.3163035 8.50788967,13.4208942 4.6507576,14.822077 C9.16405475,9.57653256 16.5431197,7.43305614 23.5169177,9.99559514 Z" id="3" fill="#9BCF1C"></path>
            <path d="M47.276544,16.2121605 C36.0023372,12.2808316 23.5257474,21.3346505 21.2534704,32.8110631 C20.3244774,37.5030556 21.1069365,42.1447276 23.1835787,46.1507613 C23.2360102,45.8045589 23.2966621,45.4584361 23.3652504,45.1120222 C25.9509449,32.0526563 42.168124,21.0154203 51.4763299,24.6495369 C56.0438053,26.4327741 59.6271845,28.027578 62.9872118,31.383776 C59.9256113,23.4216173 55.3895196,19.0411645 47.276544,16.2121605 Z" id="2" fill="#84B117" transform="translate(41.926848, 30.714868) rotate(1.000000) translate(-41.926848, -30.714868) "></path>
            <path d="M40.1307236,12.1403905 C30.0869132,12.1675956 21.9247371,18.9999368 21.8999367,27.4009326 C21.8904016,30.6574051 23.1049201,33.6715691 25.1809778,36.1403905 L25.1809237,36.0842022 C25.2103808,26.0830167 34.1165701,17.9514666 45.0734542,17.9218766 C49.5098658,17.9098957 53.6022531,19.2280012 56.8999367,21.4649349 C54.1788071,15.9710505 47.7005808,12.1200285 40.1307236,12.1403905 Z" id="1" fill="#9BCF1C" transform="translate(39.399937, 24.140391) rotate(-32.000000) translate(-39.399937, -24.140391) "></path>
        </g>
        <rect id="body" fill="#C39146" transform="translate(54.803173, 55.871980) rotate(-45.000000) translate(-54.803173, -55.871980) " x="22.8031733" y="13.3719801" width="64" height="85" rx="24"></rect>
        <rect id="highlight-1" fill="#FFDEAD" x="25" y="42" width="12" height="12"></rect>
        <rect id="highlight-2" fill="#FFDEAD" x="38" y="55" width="12" height="12"></rect>
        <rect id="highlight-3" fill="#FFDEAD" x="51" y="68" width="12" height="12"></rect>
    </g>
</svg>
